!!!!SEGMENT: pl-kozmzk--mzk-m-346--010_walczynski-franciszek--cantantibus-organis-allegro-moderato.krn
!!!cenid: 18xx:2805
!!!COM: Walczyński, Franciszek
!!!COM-rismID: pe30021989
!!!CDT: ~1852-1937
!!!CNT: Polish
!!!GTL: Cantantibus organis op. 10
!!!OTL: 10. Allegro moderato
!!!OMV: 010
!!!PDT: 1898
!!!AGN: Secular
!!!SMS-siglum: PL-KOZmzk
!!!SMS-shelfmark: mzk/m/346
!!!SMS-shelfwork: 001-010 G
!!!SMS-variant:
!!!SMS-altvar:
!!!NIFC-rismSourceID: 1001099615
!!!NIFC-rismChildID: 1001109073
!!!NIFC-islandoraID: pl-kozmzk:7453
!!!URL-pdf-islandora: https://repozytorium.nifc.pl/islandora/object/pl-kozmzk%3A7453/datastream/PDF/view
!!!URL-scan: https://polish.musicsources.pl/pl/lokalizacje/galeria/druki-muzyczne/7581 @EN{Scan on Polish Music Sources Website} @PL{Skany w portalu Dziedzictwo Muzyki Polskiej w otwartym dostępie}
!!!ONB-nifc:
!!!OMD: Allegro moderato.
!!!AIN: 1 empty 1 organ
!!!key:
**kern	**kern	**dynam
*part2	*part1	*part1
*staff2	*staff1	*
*Iorgan	*Iempty	*
*I"[Organo]	*	*
*clefF4	*clefG2	*
*k[f#]	*k[f#]	*
*a:	*a:	*
*M4/4	*M4/4	*
*met(c)	*met(c)	*
=1	=1	=1
*^	*^	*
!	!LO:TX:b:i:t=Ped.	!	!	!
2B/	[1E\	[1ee/	2g\	f
4c/	.	.	4a\	.
8B/L	.	.	8g\L	.
8A/J	.	.	8f#\J	.
=2	=2	=2	=2	=2
*	*	*	*	*above
!	!	!	!	!
4B/	1E\_	1ee/_	4g\	<
4G/	.	.	4e\	.
4A/	.	.	4f#\	.
8B/L	.	.	8g\L	.
8c/J	.	.	8a\J	[[
=3	=3	=3	=3	=3
!	!	!	!	!
2B/	2.E\]	1ee/]	2g\	>
([2G/	.	.	[2e\	.
.	4D\	.	.	.
=4	=4	=4	=4	=4
!	!	!	!	!
2G/]	(2C\	(2ee/	1e\]	] p
2A/)	4AA\	4cc/	.	.
.	4C\	4a/	.	.
=5	=5	=5	=5	=5
!	!	!	!	!
(8G/L	1D\)	2b/	4d\	>
8A/	.	.	.	.
8B/	.	.	2g\	.
8c/J	.	.	.	.
4.d/	.	2a/	.	.
.	.	.	4f#\	.
[8c/	.	.	.	.
=6	=6	=6	=6	=6
4c/]	2.GG\	2.g/)	2.e\	.
8B/L	.	.	.	]]
8A/J	.	.	.	.
4B/)	.	.	.	.
!	!	!	!	!
4rA	4rFF	(8b/L	4r	f
.	.	8cc/J	.	.
=7	=7	=7	=7	=7
!	!LO:TX:b:i:t=senza Ped.	!	!	!
(2B/	[1G\	2dd/	[1g\	.
4c/	.	4ee/	.	.
8B/L	.	8dd/L	.	.
8A/J	.	8cc/J	.	.
=8	=8	=8	=8	=8
4B/	1G\_	4dd/	1g\_	.
4d/	.	4b/	.	.
4e/	.	4cc/	.	.
8d/L	.	8b/L	.	.
8c/J	.	8a/J	.	.
=9	=9	=9	=9	=9
2d/	2.G\]	2b/	1g\]	.
2B/)	.	2g/)	.	.
.	4F#\	.	.	.
=10	=10	=10	=10	=10
!	!	!	!	!
(2B/	(2Fn\	(2dd/	[1g\	p
4c/	4E\	4cc/	.	.
4d/)	4D\	4b/	.	.
!!LO:LB:g=original
=11	=11	=11	=11	=11
1e/	2C\	2a/	(1g\_	.
.	2C#X\	4.b/	.	.
.	.	8a/	.	.
=12	=12	=12	=12	=12
2.d/	([2D\)	2.a/)	4g\]	.
.	.	.	8f#\L	.
.	.	.	8e\J	.
.	8D\L]	.	4f#\)	.
.	8E\	.	.	.
4r	8D\	4ryy	4r	.
.	8Cn\J)	.	.	.
=13	=13	=13	=13	=13
*	*	*	*	*below
!	!LO:TX:b:i:t=Ped.	!	!	!
([1d/	(2BB\	(2dd/	2g\	fp
.	2AA\	4.cc/	2f#\	.
.	.	8dd/	.	.
=14	=14	=14	=14	=14
2d/]	4GG\	2b/	1g\	.
.	4FF#\	.	.	.
4c/	4EE\	4cc/	.	.
4d/	4DD\	4b/	.	.
=15	=15	=15	=15	=15
2c/	2DD#X\	4.b^/	2f#\	.
.	.	8a/	.	.
2B/)	4EE\	4g/	[2e\	.
.	8E\L	4g#X/)	.	.
.	8Dn\J)	.	.	.
=16	=16	=16	=16	=16
(4A/	(4C\	(4a/	(1e\_	p
4G#X/	4BB\	4b/	.	.
2A/	4AA\	4cc/	.	.
.	4C\	4a/	.	.
=17	=17	=17	=17	=17
2B/	1BB\)	2g/	2.e\]	>
2A/)	.	2f#/)	.	.
.	.	.	4d#X\)	]]
=18	=18	=18	=18	=18
(2G/	[1E\	[1e/	2e\	pp
2G#X/	.	.	(4dn\	<
.	.	.	8c\L	.
.	.	.	8B\J	.
=19	=19	=19	=19	=19
2A/	1E\_	1e/_	2c\	[[
4F#/	.	.	4A\	>
8G#X/L	.	.	8B\L	.
8A/J	.	.	8c\J	.
*v	*v	*	*	*
=20	=20	=20	=20
1G#X/ 1E/] 1EE/)	1e/;]	1B\)	]]
*	*v	*v	*
==	==	==
*-	*-	*-
!!!system-decoration: {(s1,s2)}
!!!ENC: Andrzej Gręziak
!!!END: 2021-07-28
!!!YEC: Copyright 2022 Narodowy Instytut Fryderyka Chopina (https://polishscores.org)
!!!YEM: License CC-BY-4.0 (https://creativecommons.org/licenses/by/4.0)
